X: 4713
T: Boys Of Ballinahinch, The
R: reel
M: 4/4
K: Dmajor
|:g|fadf edBA|fadf g2ag|f2df edBc|dcBA GAd:|
g|faaf dcde|faaf g2ge|faaf afef|gfed Bcde|
faaf dcde|faaf g2ga|agaf gfed|(3Bcdef g2||

